X: 51
U:~=!turn!
M:C|
L:1/8
K:A minor
c | A/A/A (AG) EGGc | A/A/A (AB) cded | (c/B/A/B/ c)G EGGc | A/A/A (eg) aAA :| g | (e/f/g) (cg) ecgc |


